!!!OTL: UND ALS ICH AUF GRUEN HEIDE KAM
!!!ARE: Europa, Mitteleuropa, Deutschland, Westfalen
!!!SCT: E0040B
!!!YEM: Copyright 1995, estate of Helmut Schaffrath.
**kern
*ICvox
*Ivox
*M4/4
*k[b-e-a-d-]
*f:
{8e-
=1
4.e-
8a-
4a-
4f
=2
4.f
8e-
4e-
8r}
{8e-
=3
4.a-
8a-
4.b-
8b-
=4
2.cc
8r}
{8a-
=5
4.g
8f
4g
4a-
=6
2b-
2cc}
=7
{4.f
8g
4a-
4f
=8
4g
4c
4c}
{4a-
=9
4.g
8f
4g
4a-
=10
2b-
4cc
8r}
{8b-
=11
4a-
4f
4g
4e
=12
2f
4.r}
==
!!!AGN: erzaehlendes Volks - Lied, Ritter - Sage, Ballade ?
!!!ONB: ESAC (Essen Associative Code) Database: ERK1
!!!AMT: simple quadruple
!!!AIN: vox
!!!EED: Helmut Schaffrath
!!!EEV: 1.0
*-
